X:12
T:DRUMDB1- Drimen Duff
S:from B. Thumoth's '12 Scotch and 12 Irish Airs', c 1745
Q:1/4=80
L:1/4
M:3/4
K:A dorian
A/B/|{d/}.c2B|AGA/B/|{d/}.c2B|{B/}A2G/A/|B2A|\
GE3/4D/4E3/4G/4|gd/B/c/A/|.G2A/B/|{d/}c2B|AGA/B/|\
{d/}c2B|A2B|(c/B/c/d/e/)g/|a2g|.e/d/Bd/B/|A3:|]

